svgs/sharp-solid/dial-high.svg

<svg xmlns="http://www.w3.org/2000/svg" viewBox="0 0 576 512"><!--! Font Awesome Pro 6.6.0 by @fontawesome - https://fontawesome.com License - https://fontawesome.com/license (Commercial License) Copyright 2024 Fonticons, Inc. --><path d="M320 0l0 64-64 0 0-64 64 0zM128 64l0 64-64 0 0-64 64 0zm384 0l0 64-64 0 0-64 64 0zm0 192l64 0 0 64-64 0 0-64zm0 192l0 64-64 0 0-64 64 0zM64 448l64 0 0 64-64 0 0-64zM0 256l64 0 0 64L0 320l0-64zM288.4 127.6c80.2 0 146.6 59 158.2 136l-158.2 0-24 0 0 48 24 0 158.2 0c-11.6 77-78 136-158.2 136c-88.4 0-160-71.6-160-160s71.6-160 160-160z"/></svg>

<svg xmlns="http://www.w3.org/2000/svg" viewBox="0 0 576 512"><!--! Font Awesome Pro 6.5.2 by @fontawesome - https://fontawesome.com License - https://fontawesome.com/license (Commercial License) Copyright 2024 Fonticons, Inc. --><path d="M320 0V64H256V0h64zM128 64v64H64V64h64zm384 0v64H448V64h64zm0 192h64v64H512V256zm0 192v64H448V448h64zM64 448h64v64H64V448zM0 256H64v64H0V256zM288.4 127.6c80.2 0 146.6 59 158.2 136H288.4h-24v48h24H446.6c-11.6 77-78 136-158.2 136c-88.4 0-160-71.6-160-160s71.6-160 160-160z"/></svg>
